tools/panel_16/clipboard.svg

<?xml version="1.0" encoding="UTF-8" standalone="no"?>
<svg
   xmlns:dc="http://purl.org/dc/elements/1.1/"
   xmlns:cc="http://creativecommons.org/ns#"
   xmlns:rdf="http://www.w3.org/1999/02/22-rdf-syntax-ns#"
   xmlns:svg="http://www.w3.org/2000/svg"
   xmlns="http://www.w3.org/2000/svg"
   xmlns:sodipodi="http://sodipodi.sourceforge.net/DTD/sodipodi-0.dtd"
   xmlns:inkscape="http://www.inkscape.org/namespaces/inkscape"
   width="16"
   height="16"
   version="1.1"
   id="svg2"
   inkscape:version="0.91 r13725"
   sodipodi:docname="clipboard.svg">
  <metadata
     id="metadata13">
    <rdf:RDF>
      <cc:Work
         rdf:about="">
        <dc:format>image/svg+xml</dc:format>
        <dc:type
           rdf:resource="http://purl.org/dc/dcmitype/StillImage" />
      </cc:Work>
    </rdf:RDF>
  </metadata>
  <sodipodi:namedview
     pagecolor="#ffffff"
     bordercolor="#666666"
     borderopacity="1"
     objecttolerance="10"
     gridtolerance="10"
     guidetolerance="10"
     inkscape:pageopacity="0"
     inkscape:pageshadow="2"
     inkscape:window-width="1920"
     inkscape:window-height="1016"
     id="namedview11"
     showgrid="false"
     inkscape:zoom="14.75"
     inkscape:cx="8"
     inkscape:cy="8"
     inkscape:window-x="0"
     inkscape:window-y="34"
     inkscape:window-maximized="1"
     inkscape:current-layer="svg2" />
  <defs
     id="defs4">
    <style
       id="current-color-scheme"
       type="text/css">
   .ColorScheme-Text { color:#d3dae3; } .ColorScheme-Highlight { color:#5294e2; }
  </style>
  </defs>
  <g
     id="g7"
     transform="matrix(0.85712672,0,0,0.875,1.1419983,1)">
    <path
       style="color:#d3dae3;fill:currentColor"
       class="ColorScheme-Text"
       d="M 13.687,1.1693 13.265,0.8152 C 12.638,0.2895 11.848,0 11.041,0 9.964,0 8.959,0.4954 8.284,1.3591 L 1.7893,9.672 c -0.5951,0.761 -0.8675,1.717 -0.7683,2.692 0.0992,0.974 0.5581,1.85 1.2935,2.466 L 2.737,15.184 C 3.3641,15.711 4.154,16 4.9612,16 5.0858,16 5.2119,15.994 5.3359,15.98 6.2708,15.878 7.113,15.407 7.704,14.658 7.706,14.656 7.707,14.654 12.086,9.05 12.866,8.052 12.716,6.5826 11.753,5.7748 l -0.221,-0.185 c -0.399,-0.3338 -0.9,-0.5176 -1.413,-0.5176 -0.684,0 -1.322,0.3146 -1.75,0.863 L 3.995,11.533 c -0.2858,0.366 -0.231,0.904 0.1222,1.2 0.1462,0.123 0.3301,0.19 0.5179,0.19 0.2502,0 0.4839,-0.115 0.6412,-0.316 L 9.65,7.009 c 0.114,-0.1467 0.284,-0.2307 0.467,-0.2307 0.139,0 0.269,0.0478 0.377,0.1381 l 0.221,0.1856 c 0.125,0.104 0.203,0.253 0.22,0.418 0.016,0.166 -0.03,0.328 -0.131,0.457 L 6.4358,13.568 C 6.075,14.029 5.538,14.294 4.9625,14.294 4.531,14.294 4.1087,14.139 3.7735,13.858 L 3.351,13.504 C 2.9592,13.176 2.7134,12.708 2.6605,12.187 2.6074,11.666 2.7534,11.155 3.0715,10.748 L 9.567,2.4352 c 0.361,-0.4616 0.898,-0.7264 1.474,-0.7264 0.432,0 0.854,0.1547 1.189,0.4356 l 0.423,0.354 c 0.811,0.6802 0.937,1.9173 0.28,2.7577 -0.138,0.1773 -0.202,0.3997 -0.179,0.6265 0.024,0.2267 0.13,0.4306 0.302,0.5739 0.146,0.1225 0.33,0.19 0.517,0.19 0.251,0 0.484,-0.1153 0.642,-0.3165 0.594,-0.7605 0.866,-1.7165 0.766,-2.6929 -0.1,-0.9765 -0.559,-1.8526 -1.294,-2.4678 z"
       id="path9"
       inkscape:connector-curvature="0" />
  </g>
</svg>

<svg xmlns="http://www.w3.org/2000/svg" width="16" height="16" version="1.1">
 <defs>
  <style id="current-color-scheme" type="text/css">
   .ColorScheme-Text { color:#d3dae3; } .ColorScheme-Highlight { color:#5294e2; }
  </style>
 </defs>
 <g>
  <path style="fill:currentColor" class="ColorScheme-Text" d="M 13.687,1.1693 13.265,0.8152 C 12.638,0.2895 11.848,0 11.041,0 9.964,0 8.959,0.4954 8.284,1.3591 L 1.7893,9.672 C 1.1942,10.433 0.9218,11.389 1.021,12.364 1.1202,13.338 1.5791,14.214 2.3145,14.83 L 2.737,15.184 C 3.3641,15.711 4.154,16 4.9612,16 5.0858,16 5.2119,15.994 5.3359,15.98 6.2708,15.878 7.113,15.407 7.704,14.658 7.706,14.656 7.707,14.654 12.086,9.05 12.866,8.052 12.716,6.5826 11.753,5.7748 L 11.532,5.5898 C 11.133,5.256 10.632,5.0722 10.119,5.0722 9.435,5.0722 8.797,5.3868 8.369,5.9352 L 3.995,11.533 C 3.7092,11.899 3.764,12.437 4.1172,12.733 4.2634,12.856 4.4473,12.923 4.6351,12.923 4.8853,12.923 5.119,12.808 5.2763,12.607 L 9.65,7.009 C 9.764,6.8623 9.934,6.7783 10.117,6.7783 10.256,6.7783 10.386,6.8261 10.494,6.9164 L 10.715,7.102 C 10.84,7.206 10.918,7.355 10.935,7.52 10.951,7.686 10.905,7.848 10.804,7.977 L 6.4358,13.568 C 6.075,14.029 5.538,14.294 4.9625,14.294 4.531,14.294 4.1087,14.139 3.7735,13.858 L 3.351,13.504 C 2.9592,13.176 2.7134,12.708 2.6605,12.187 2.6074,11.666 2.7534,11.155 3.0715,10.748 L 9.567,2.4352 C 9.928,1.9736 10.465,1.7088 11.041,1.7088 11.473,1.7088 11.895,1.8635 12.23,2.1444 L 12.653,2.4984 C 13.464,3.1786 13.59,4.4157 12.933,5.2561 12.795,5.4334 12.731,5.6558 12.754,5.8826 12.778,6.1093 12.884,6.3132 13.056,6.4565 13.202,6.579 13.386,6.6465 13.573,6.6465 13.824,6.6465 14.057,6.5312 14.215,6.33 14.809,5.5695 15.081,4.6135 14.981,3.6371 14.881,2.6606 14.422,1.7845 13.687,1.1693 Z"/>
 </g>
</svg>
